static/img/addFileFile.svg

<svg width="22" height="22" viewBox="0 0 22 22" fill="none" xmlns="http://www.w3.org/2000/svg">
<path fill-rule="evenodd" clip-rule="evenodd" d="M4 1.5H18C19.3807 1.5 20.5 2.61929 20.5 4V12H16C13.7909 12 12 13.7909 12 16V20.5H4C2.61929 20.5 1.5 19.3807 1.5 18V4C1.5 2.61929 2.61929 1.5 4 1.5ZM12 22H4C1.79086 22 0 20.2091 0 18V4C0 1.79086 1.79086 0 4 0H18C20.2091 0 22 1.79086 22 4V12V18C22 20.2091 20.2091 22 18 22H12Z" fill="#3369F3"/>
</svg>

<svg width="22" height="22" fill="none" xmlns="http://www.w3.org/2000/svg"><path fill-rule="evenodd" clip-rule="evenodd" d="M4 1.5h14A2.5 2.5 0 0 1 20.5 4v8H16a4 4 0 0 0-4 4v4.5H4A2.5 2.5 0 0 1 1.5 18V4A2.5 2.5 0 0 1 4 1.5zM12 22H4a4 4 0 0 1-4-4V4a4 4 0 0 1 4-4h14a4 4 0 0 1 4 4v14a4 4 0 0 1-4 4h-6z" fill="#3369F3"/></svg>
